src/next/cmd/nl/sc_bold.svg

<svg height="16" viewBox="0 0 4.2333333 4.2333335" width="16" xmlns="http://www.w3.org/2000/svg" xmlns:xlink="http://www.w3.org/1999/xlink"><linearGradient id="a" gradientUnits="userSpaceOnUse" x1="16.054096" x2="17.275253" y1="31.245296" y2="3.158661"><stop offset="0" stop-color="#555"/><stop offset="1"/></linearGradient><linearGradient id="b" gradientUnits="userSpaceOnUse" x1="5.514072" x2="28.219147" y1="12.561531" y2="12.561531"><stop offset="0" stop-color="#3b3e22"/><stop offset="1" stop-color="#454545" stop-opacity="0"/></linearGradient><g transform="scale(.125)"><path d="m31.571966 2.1023688v1.0685133q-1.666881.2137027-2.39347.8548107-.683849.641108-1.453178 2.649913l-9.744841 25.0886922h-1.153995l-10.941576-25.6015786q-.8120701-1.7523618-1.4104376-2.2652482-.5983674-.5128864-2.1797671-.7265891v-1.0685133h14.3608187v1.0685133q-1.282216.085481-1.410438.085481-2.265248.1282216-2.265248 1.5386591 0 .7693296.983033 3.0773183l5.898193 14.2753375 5.428047-14.0616347q.854811-2.1797671.854811-3.0345778 0-1.0257727-.683848-1.367697-.683849-.3419242-2.991838-.5128864v-1.0685133z" fill="url(#a)" stroke-width="1.015378"/><path d="m5.5140724 3.3336705c.5572358.5841202.9964722 1.2491813 1.4882813 2.3104534a1.2312165 1.2312165 0 0 1 .015503.033073l6.7293053 15.7478761a20.903197 12.937658 0 0 0 4.633309.364319l-5.550049-13.4343226c-.674849-1.5844266-1.080038-2.524242-1.080038-3.5605062 0-.5192683.228649-1.0197465.541053-1.4608927zm21.2302296 0c.340714.4656358.561005.9929676.591695 1.5585613.272277-.5374026.522793-1.1843057.88315-1.5585613z" fill="url(#b)"/></g></svg>

<?xml version="1.0" encoding="UTF-8" standalone="no"?>
<svg
   xmlns:dc="http://purl.org/dc/elements/1.1/"
   xmlns:cc="http://creativecommons.org/ns#"
   xmlns:rdf="http://www.w3.org/1999/02/22-rdf-syntax-ns#"
   xmlns:svg="http://www.w3.org/2000/svg"
   xmlns="http://www.w3.org/2000/svg"
   xmlns:xlink="http://www.w3.org/1999/xlink"
   xmlns:sodipodi="http://sodipodi.sourceforge.net/DTD/sodipodi-0.dtd"
   xmlns:inkscape="http://www.inkscape.org/namespaces/inkscape"
   height="16"
   viewBox="0 0 4.2333333 4.2333335"
   width="16"
   version="1.1"
   id="svg18"
   sodipodi:docname="sc_bold.svg"
   inkscape:version="0.92.4 (unknown)"
   inkscape:export-filename="/home/rizmut/Dokumen/Rizmut/Github/libreoffice-style-karasa-jaga/src/next/cmd/nl/sc_bold.png"
   inkscape:export-xdpi="96"
   inkscape:export-ydpi="96">
  <metadata
     id="metadata24">
    <rdf:RDF>
      <cc:Work
         rdf:about="">
        <dc:format>image/svg+xml</dc:format>
        <dc:type
           rdf:resource="http://purl.org/dc/dcmitype/StillImage" />
        <dc:title></dc:title>
      </cc:Work>
    </rdf:RDF>
  </metadata>
  <defs
     id="defs22">
    <linearGradient
       inkscape:collect="always"
       xlink:href="#b"
       id="linearGradient847"
       gradientUnits="userSpaceOnUse"
       x1="16.054096"
       y1="31.245296"
       x2="17.275253"
       y2="3.1586609" />
    <linearGradient
       inkscape:collect="always"
       xlink:href="#b"
       id="linearGradient849"
       gradientUnits="userSpaceOnUse"
       x1="16.054096"
       y1="31.245296"
       x2="17.275253"
       y2="3.1586609" />
  </defs>
  <sodipodi:namedview
     pagecolor="#ffffff"
     bordercolor="#666666"
     borderopacity="1"
     objecttolerance="10"
     gridtolerance="10"
     guidetolerance="10"
     inkscape:pageopacity="0"
     inkscape:pageshadow="2"
     inkscape:window-width="1366"
     inkscape:window-height="706"
     id="namedview20"
     showgrid="true"
     inkscape:zoom="10.429825"
     inkscape:cx="3.4403087"
     inkscape:cy="5.9539267"
     inkscape:window-x="0"
     inkscape:window-y="0"
     inkscape:window-maximized="1"
     inkscape:current-layer="g845">
    <inkscape:grid
       type="xygrid"
       id="grid837" />
  </sodipodi:namedview>
  <linearGradient
     id="a"
     gradientUnits="userSpaceOnUse"
     x1="5.5140719"
     x2="28.219147"
     y1="12.561531"
     y2="12.561531">
    <stop
       offset="0"
       stop-color="#3b3e22"
       id="stop2" />
    <stop
       offset="1"
       stop-color="#454545"
       stop-opacity="0"
       id="stop4" />
  </linearGradient>
  <linearGradient
     id="b"
     gradientUnits="userSpaceOnUse"
     x1="16.054096"
     x2="17.275253"
     y1="31.245296"
     y2="3.1586609">
    <stop
       offset="0"
       stop-color="#555"
       id="stop7" />
    <stop
       offset="1"
       id="stop9" />
  </linearGradient>
  <g
     id="g845"
     transform="scale(0.125)">
    <g
       id="text14"
       style="font-size:40.61514282px;font-family:sans-serif;letter-spacing:0;word-spacing:0;fill:url(#linearGradient849);stroke-width:1.015378"
       aria-label="V">
      <path
         id="path834"
         style="font-weight:bold;font-size:42.74053192px;font-family:FreeSerif;fill:url(#linearGradient847);stroke-width:1.015378"
         d="m 31.571966,2.1023688 v 1.0685133 q -1.666881,0.2137027 -2.39347,0.8548107 -0.683849,0.641108 -1.453178,2.649913 L 17.980477,31.764298 H 16.826482 L 5.884906,6.1627194 Q 5.0728359,4.4103576 4.4744684,3.8974712 3.876101,3.3845848 2.2947013,3.1708821 V 2.1023688 H 16.65552 v 1.0685133 q -1.282216,0.085481 -1.410438,0.085481 -2.265248,0.1282216 -2.265248,1.5386591 0,0.7693296 0.983033,3.0773183 L 19.86106,22.147678 25.289107,8.0860433 q 0.854811,-2.1797671 0.854811,-3.0345778 0,-1.0257727 -0.683848,-1.367697 Q 24.776221,3.3418443 22.468232,3.1708821 V 2.1023688 Z"
         inkscape:connector-curvature="0" />
    </g>
    <path
       id="path16"
       d="m 5.5140724,3.3336705 c 0.5572358,0.5841202 0.9964722,1.2491813 1.4882813,2.3104534 a 1.2312165,1.2312165 0 0 1 0.015503,0.033073 L 13.747162,21.425073 a 20.903197,12.937658 0 0 0 4.633309,0.364319 L 12.830422,8.3550694 c -0.674849,-1.5844266 -1.080038,-2.524242 -1.080038,-3.5605062 0,-0.5192683 0.228649,-1.0197465 0.541053,-1.4608927 z m 21.2302296,0 c 0.340714,0.4656358 0.561005,0.9929676 0.591695,1.5585613 0.272277,-0.5374026 0.522793,-1.1843057 0.88315,-1.5585613 z"
       style="fill:url(#a)"
       inkscape:connector-curvature="0" />
  </g>
</svg>
